public/images/svg/others/gmail.svg

<svg width="123" height="93" viewBox="0 0 123 93" fill="none" xmlns="http://www.w3.org/2000/svg">
<g clip-path="url(#clip0_2_34)">
<path d="M8.36 92.11H27.9V44.66L0 23.75V83.83C0 88.41 3.78 92.11 8.36 92.11Z" fill="white"/>
<path d="M94.9702 92.11H114.51C119.18 92.11 122.87 88.33 122.87 83.75V23.75L94.9702 44.66V92.11Z" fill="white"/>
<path d="M94.9702 8.40347V44.6735L122.88 23.7635V12.5835C122.88 2.21347 111.06 -3.66653 102.77 2.53347L94.9702 8.40347Z" fill="white"/>
<path d="M27.8999 44.6762V8.40625L61.4399 33.5763L94.9699 8.40625V44.6762L61.4399 69.7663L27.8999 44.6762Z" fill="white"/>
<path d="M0 12.5967V23.7767L27.91 44.6867V8.41675L20.11 2.54675C11.82 -3.64325 0 2.30675 0 12.5967Z" fill="white"/>
</g>
<defs>
<clipPath id="clip0_2_34">
<rect width="122.88" height="92.12" fill="white"/>
</clipPath>
</defs>
</svg>

<?xml version="1.0" encoding="utf-8"?><svg version="1.1" id="Layer_1" xmlns="http://www.w3.org/2000/svg" xmlns:xlink="http://www.w3.org/1999/xlink" x="0px" y="0px" viewBox="0 0 122.88 92.12" style="enable-background:new 0 0 122.88 92.12" xml:space="preserve"><style type="text/css"><![CDATA[
	.st0{fill:#EA4335;}
	.st1{fill:#C5221F;}
	.st2{fill:#FBBC04;}
	.st3{fill:#34A853;}
	.st4{fill:#4285F4;}
]]></style><g><path class="st4" d="M8.36,92.12h19.54V44.67L0,23.76v60.08C0,88.42,3.78,92.12,8.36,92.12L8.36,92.12z"/><path class="st3" d="M94.97,92.12h19.54c4.67,0,8.36-3.78,8.36-8.36v-60L94.97,44.67V92.12L94.97,92.12z"/><path class="st2" d="M94.97,8.4v36.27l27.91-20.91V12.58c0-10.37-11.82-16.25-20.11-10.05L94.97,8.4L94.97,8.4z"/><polygon class="st0" points="27.9,44.67 27.9,8.4 61.44,33.57 94.97,8.4 94.97,44.67 61.44,69.76 27.9,44.67"/><path class="st1" d="M0,12.58v11.18l27.91,20.91V8.4l-7.8-5.87C11.82-3.66,0,2.29,0,12.58L0,12.58z"/></g></svg>
